; G-Code generated by Simplify3D(R) Version 4.0.0
; Oct 3, 2020 at 4:26:44 PM
; Settings Summary
;   processName,Process1
;   applyToModels,Triangle
;   profileName,Base
;   profileVersion,2017-03-01 08:00:00
;   baseProfile,Default (modified)
;   printMaterial,PLA
;   printQuality,new quality
;   printExtruders,
;   extruderName,Primary Extruder
;   extruderToolheadNumber,0
;   extruderDiameter,0.4
;   extruderAutoWidth,0
;   extruderWidth,0.4
;   extrusionMultiplier,0.9
;   extruderUseRetract,1
;   extruderRetractionDistance,2.4
;   extruderExtraRestartDistance,0
;   extruderRetractionZLift,0
;   extruderRetractionSpeed,3600
;   extruderUseCoasting,0
;   extruderCoastingDistance,0.2
;   extruderUseWipe,0
;   extruderWipeDistance,5
;   primaryExtruder,0
;   layerHeight,0.3
;   topSolidLayers,2
;   bottomSolidLayers,2
;   perimeterOutlines,2
;   printPerimetersInsideOut,1
;   startPointOption,2
;   startPointOriginX,0
;   startPointOriginY,0
;   sequentialIslands,0
;   spiralVaseMode,0
;   firstLayerHeightPercentage,90
;   firstLayerWidthPercentage,100
;   firstLayerUnderspeed,0.5
;   useRaft,0
;   raftExtruder,0
;   raftTopLayers,3
;   raftBaseLayers,2
;   raftOffset,3
;   raftSeparationDistance,0.14
;   raftTopInfill,100
;   aboveRaftSpeedMultiplier,0.3
;   useSkirt,1
;   skirtExtruder,0
;   skirtLayers,1
;   skirtOutlines,3
;   skirtOffset,5
;   usePrimePillar,0
;   primePillarExtruder,999
;   primePillarWidth,12
;   primePillarLocation,7
;   primePillarSpeedMultiplier,1
;   useOozeShield,0
;   oozeShieldExtruder,999
;   oozeShieldOffset,2
;   oozeShieldOutlines,1
;   oozeShieldSidewallShape,1
;   oozeShieldSidewallAngle,30
;   oozeShieldSpeedMultiplier,1
;   infillExtruder,0
;   internalInfillPattern,Grid
;   externalInfillPattern,Rectilinear
;   infillPercentage,5
;   outlineOverlapPercentage,20
;   infillExtrusionWidthPercentage,100
;   minInfillLength,5
;   infillLayerInterval,1
;   internalInfillAngles,45,-45
;   overlapInternalInfillAngles,1
;   externalInfillAngles,45,-45
;   generateSupport,0
;   supportExtruder,0
;   supportInfillPercentage,30
;   supportExtraInflation,0
;   supportBaseLayers,0
;   denseSupportExtruder,0
;   denseSupportLayers,0
;   denseSupportInfillPercentage,70
;   supportLayerInterval,1
;   supportHorizontalPartOffset,0.3
;   supportUpperSeparationLayers,1
;   supportLowerSeparationLayers,1
;   supportType,0
;   supportGridSpacing,4
;   maxOverhangAngle,45
;   supportAngles,0
;   temperatureName,Extrusor,Cama
;   temperatureNumber,0,0
;   temperatureSetpointCount,1,1
;   temperatureSetpointLayers,1,1
;   temperatureSetpointTemperatures,180,60
;   temperatureStabilizeAtStartup,1,1
;   temperatureHeatedBed,0,1
;   temperatureRelayBetweenLayers,0,0
;   temperatureRelayBetweenLoops,0,0
;   fanLayers,1,2
;   fanSpeeds,0,100
;   blipFanToFullPower,0
;   adjustSpeedForCooling,1
;   minSpeedLayerTime,15
;   minCoolingSpeedSlowdown,20
;   increaseFanForCooling,0
;   minFanLayerTime,45
;   maxCoolingFanSpeed,100
;   increaseFanForBridging,0
;   bridgingFanSpeed,100
;   use5D,1
;   relativeEdistances,0
;   allowEaxisZeroing,1
;   independentExtruderAxes,0
;   includeM10123,0
;   stickySupport,1
;   applyToolheadOffsets,0
;   gcodeXoffset,0
;   gcodeYoffset,0
;   gcodeZoffset,0
;   overrideMachineDefinition,1
;   machineTypeOverride,0
;   strokeXoverride,200
;   strokeYoverride,300
;   strokeZoverride,200
;   originOffsetXoverride,0
;   originOffsetYoverride,0
;   originOffsetZoverride,0
;   homeXdirOverride,-1
;   homeYdirOverride,-1
;   homeZdirOverride,-1
;   flipXoverride,1
;   flipYoverride,-1
;   flipZoverride,1
;   toolheadOffsets,0,0|0,0|0,0|0,0|0,0|0,0
;   overrideFirmwareConfiguration,1
;   firmwareTypeOverride,RepRap (Marlin/Repetier/Sprinter)
;   GPXconfigOverride,r2
;   baudRateOverride,115200
;   overridePrinterModels,0
;   printerModelsOverride
;   startingGcode,;BEGIN::Starting Script,M106 S[fan_speed_percentage]		;Configuro ventilador,G28			;Home,G1 Z10 F100			;Levanto el eje Z 1cm,M140 S[bed0_temperature]		;Configuro temperatura inicial de la cama,M190 S[bed0_temperature]		;Espero temperatura inivisl de la cama,G29			;Calibracion de altura automatica,G1 Z50 F200			;Levanto el eje Z 5cm para limpiar,M104 S[extruder0_temperature] T0	;Configuro temperatura inicial extrusor,M109 S[extruder0_temperature] T0	;Espero temperatura inicial extrusor,;END::Starting Script
;   layerChangeGcode,
;   retractionGcode,
;   toolChangeGcode,
;   endingGcode,;BEGIN::Ending Script,M104 S0	;Apago el extrusor,M140 S0	;Apago la cama,G1 X0.0 Y0 F4800	;Muevo el modelo al origen,M84 	;Desabilito los motores,;END::Ending Script
;   exportFileFormat,gcode
;   celebration,0
;   celebrationSong,Random Song
;   postProcessing,python D:\3DPrint\Calibration\Skew\SkewCorrection.py --replace --input [output_filepath]
;   defaultSpeed,3600
;   outlineUnderspeed,0.5
;   solidInfillUnderspeed,0.8
;   supportUnderspeed,0.8
;   rapidXYspeed,7200
;   rapidZspeed,1002
;   minBridgingArea,50
;   bridgingExtraInflation,0
;   bridgingExtrusionMultiplier,1
;   bridgingSpeedMultiplier,1
;   useFixedBridgingAngle,0
;   fixedBridgingAngle,0
;   applyBridgingToPerimeters,0
;   filamentDiameters,1.75|1.75|1.75|1.75|1.75|1.75
;   filamentPricesPerKg,1310|46|46|46|46|46
;   filamentDensities,1.25|1.25|1.25|1.25|1.25|1.25
;   useMinPrintHeight,0
;   minPrintHeight,0
;   useMaxPrintHeight,0
;   maxPrintHeight,0
;   useDiaphragm,0
;   diaphragmLayerInterval,20
;   robustSlicing,1
;   mergeAllIntoSolid,0
;   onlyRetractWhenCrossingOutline,1
;   retractBetweenLayers,1
;   useRetractionMinTravel,0
;   retractionMinTravel,3
;   retractWhileWiping,0
;   onlyWipeOutlines,1
;   avoidCrossingOutline,0
;   maxMovementDetourFactor,3
;   toolChangeRetractionDistance,12
;   toolChangeExtraRestartDistance,-0.5
;   toolChangeRetractionSpeed,600
;   externalThinWallType,0
;   internalThinWallType,2
;   thinWallAllowedOverlapPercentage,10
;   singleExtrusionMinLength,1
;   singleExtrusionMinPrintingWidthPercentage,50
;   singleExtrusionMaxPrintingWidthPercentage,200
;   singleExtrusionEndpointExtension,0.2
;   horizontalSizeCompensation,0
G90
M82
;BEGIN::Starting Script
M106 S0		;Configuro ventilador
G28			;Home
G1 Z10 F100			;Levanto el eje Z 1cm
M140 S60		;Configuro temperatura inicial de la cama
M190 S60		;Espero temperatura inivisl de la cama
G29			;Calibracion de altura automatica
G1 Z50 F200			;Levanto el eje Z 5cm para limpiar
M104 S180 T0	;Configuro temperatura inicial extrusor
M109 S180 T0	;Espero temperatura inicial extrusor
;END::Starting Script
G92 E0
G1 E-2.4000 F3600
G1 Z0.270 F1002
; process Process1
; layer 1, Z = 0.270
T0
; tool H0.300 W0.400
; skirt
G1 X4.267 Y7.362 F7200
G1 E0.0000 F1080
G92 E0
G1 X7.427 Y4.152 E0.2038 F1800
G1 X7.792 Y4.000 E0.2217
G1 X192.332 Y4.000 E8.5078
G1 X192.703 Y4.152 E8.5256
G1 X195.963 Y7.362 E8.7295
G1 X196.121 Y7.730 E8.7474
G1 X196.246 Y15.784 E9.1090
G1 X196.228 Y15.925 E9.1154
G1 X195.813 Y17.430 E9.1858
G1 X195.757 Y17.560 E9.1922
G1 X23.899 Y294.409 E23.9266
G1 X23.717 Y294.582 E23.9379
G1 X21.27 Y295.937 E24.0644
G1 X21.026 Y296.000 E24.0757
G1 X12.348 Y296.000 E24.4654
G1 X11.977 Y295.848 E24.4832
G1 X8.717 Y292.638 E24.6871
G1 X8.559 Y292.270 E24.7050
G1 X4.121 Y7.730 E37.4811
G1 X4.267 Y7.362 E37.4990
G1 X4.609 Y7.589 F7200
G92 E0
G1 X7.659 Y4.491 E0.1967 F1800
G1 X7.879 Y4.400 E0.2074
G1 X192.259 Y4.400 E8.4863
G1 X192.481 Y4.491 E8.4971
G1 X195.627 Y7.589 E8.6938
G1 X195.722 Y7.810 E8.7045
G1 X195.846 Y15.756 E9.0613
G1 X195.835 Y15.840 E9.0651
G1 X195.435 Y17.291 E9.1330
G1 X195.401 Y17.369 E9.1368
G1 X23.585 Y294.152 E23.8677
G1 X23.475 Y294.256 E23.8745
G1 X21.115 Y295.562 E23.9964
G1 X20.969 Y295.600 E24.0032
G1 X12.421 Y295.600 E24.3870
G1 X12.199 Y295.509 E24.3978
G1 X9.053 Y292.411 E24.5945
G1 X8.958 Y292.190 E24.6052
G1 X4.522 Y7.810 E37.3742
G1 X4.609 Y7.589 E37.3849
G1 X4.952 Y7.816 F7200
G92 E0
G1 X7.891 Y4.830 E0.1896 F1800
G1 X7.964 Y4.800 E0.1931
G1 X192.186 Y4.800 E8.4649
G1 X192.259 Y4.830 E8.4685
G1 X195.292 Y7.816 E8.6580
G1 X195.323 Y7.889 E8.6616
G1 X195.445 Y15.727 E9.0136
G1 X195.442 Y15.755 E9.0148
G1 X195.057 Y17.152 E9.0801
G1 X195.046 Y17.178 E9.0814
G1 X23.27 Y293.895 E23.8088
G1 X23.233 Y293.929 E23.8110
G1 X20.961 Y295.187 E23.9285
G1 X20.912 Y295.200 E23.9307
G1 X12.494 Y295.200 E24.3087
G1 X12.421 Y295.170 E24.3123
G1 X9.388 Y292.184 E24.5018
G1 X9.357 Y292.111 E24.5054
G1 X4.923 Y7.889 E37.2673
G1 X4.952 Y7.816 E37.2709
G92 E0
G1 E-2.4000 F3600
; inner perimeter
G1 X10.765 Y10.600 F7200
G1 E0.0000 F3600
G92 E0
G1 X189.565 Y10.600 E8.0283 F1350
G1 X189.631 Y14.825 E8.2181
G1 X19.186 Y289.400 E22.8314
G1 X15.115 Y289.400 E23.0142
G1 X10.765 Y10.600 E35.5326
; outer perimeter
G1 X10.359 Y10.200 F7200
G92 E0
G1 X189.959 Y10.200 E8.0643 F900
G1 X190.033 Y14.942 E8.2772
G1 X19.411 Y289.800 E22.9056
G1 X14.721 Y289.800 E23.1162
G1 X10.359 Y10.200 E35.6706
; inner perimeter
G1 X14.625 Y14.400 F7200
G92 E0
G1 X16.554 Y138.048 E5.5519 F1350
G1 X17.419 Y138.301 E5.5923
G1 X94.745 Y15.025 E12.1726
G1 X94.395 Y14.400 E12.2046
G1 X14.625 Y14.400 E15.7864
; outer perimeter
G1 X15.031 Y14.800 F7200
G92 E0
G1 X16.949 Y137.749 E5.5205 F900
G1 X17.237 Y137.833 E5.5340
G1 X94.28 Y15.008 E12.0902
G1 X94.163 Y14.800 E12.1009
G1 X15.031 Y14.800 E15.6540
; inner perimeter
G1 X99.655 Y14.400 F7200
G92 E0
G1 X16.688 Y146.669 E7.0604 F1350
G1 X18.786 Y281.137 E13.0981
G1 X19.654 Y281.389 E13.1386
G1 X185.004 Y15.023 E27.3151
G1 X184.654 Y14.400 E27.3470
G1 X99.655 Y14.400 E31.1635
; outer perimeter
G1 X99.88 Y14.800 F7200
G92 E0
G1 X17.09 Y146.787 E7.0453 F900
G1 X19.181 Y280.837 E13.0643
G1 X19.47 Y280.921 E13.0778
G1 X184.54 Y15.008 E27.2302
G1 X184.423 Y14.800 E27.2408
G1 X99.88 Y14.800 E31.0369
; solid layer
G1 X95.001 Y15.222 F7200
G92 E0
G1 X97.324 Y17.509 E0.1452 F1440
G1 X97.109 Y17.853 E0.1636
G1 X94.786 Y15.567 E0.3088
G1 X94.57 Y15.911 E0.3272
G1 X96.892 Y18.198 E0.4724
G1 X96.676 Y18.542 E0.4907
G1 X94.354 Y16.255 E0.6359
G1 X94.138 Y16.600 E0.6543
G1 X96.461 Y18.886 E0.7995
G1 X96.244 Y19.231 E0.8179
G1 X93.922 Y16.944 E0.9631
G1 X93.706 Y17.288 E0.9815
G1 X96.028 Y19.575 E1.1267
G1 X95.813 Y19.919 E1.1451
G1 X93.49 Y17.633 E1.2903
G1 X93.274 Y17.977 E1.3087
G1 X95.596 Y20.264 E1.4539
G1 X95.38 Y20.608 E1.4722
G1 X93.058 Y18.321 E1.6174
G1 X92.842 Y18.666 E1.6358
G1 X95.165 Y20.952 E1.7810
G1 X94.948 Y21.297 E1.7994
G1 X92.626 Y19.010 E1.9446
G1 X92.41 Y19.354 E1.9630
G1 X94.733 Y21.641 E2.1082
G1 X94.516 Y21.985 E2.1266
G1 X92.194 Y19.699 E2.2718
G1 X91.978 Y20.043 E2.2901
G1 X94.3 Y22.330 E2.4354
G1 X94.085 Y22.674 E2.4537
G1 X91.762 Y20.387 E2.5989
G1 X91.546 Y20.732 E2.6173
G1 X93.868 Y23.018 E2.7625
G1 X93.652 Y23.363 E2.7809
G1 X91.33 Y21.076 E2.9261
G1 X91.114 Y21.420 E2.9445
G1 X93.437 Y23.707 E3.0897
G1 X93.22 Y24.051 E3.1081
G1 X90.899 Y21.765 E3.2533
G1 X90.682 Y22.109 E3.2716
G1 X93.005 Y24.396 E3.4168
G1 X92.789 Y24.740 E3.4352
G1 X90.466 Y22.453 E3.5804
G1 X90.251 Y22.798 E3.5988
G1 X92.572 Y25.084 E3.7440
G1 X92.357 Y25.429 E3.7624
G1 X90.034 Y23.142 E3.9076
G1 X89.818 Y23.486 E3.9260
G1 X92.141 Y25.773 E4.0712
G1 X91.924 Y26.117 E4.0896
G1 X89.603 Y23.831 E4.2348
G1 X89.386 Y24.175 E4.2531
G1 X91.709 Y26.462 E4.3983
G1 X91.492 Y26.806 E4.4167
G1 X89.17 Y24.519 E4.5619
G1 X88.954 Y24.864 E4.5803
G1 X91.277 Y27.150 E4.7255
G1 X91.061 Y27.495 E4.7439
G1 X88.738 Y25.208 E4.8891
G1 X88.523 Y25.552 E4.9075
G1 X90.844 Y27.839 E5.0527
G1 X90.629 Y28.183 E5.0710
G1 X88.306 Y25.897 E5.2162
G1 X88.09 Y26.241 E5.2346
G1 X90.413 Y28.528 E5.3798
G1 X90.196 Y28.872 E5.3982
G1 X87.875 Y26.585 E5.5434
G1 X87.658 Y26.930 E5.5618
G1 X89.981 Y29.216 E5.7070
G1 X89.765 Y29.561 E5.7254
G1 X87.442 Y27.274 E5.8706
G1 X87.227 Y27.618 E5.8890
G1 X89.549 Y29.905 E6.0342
G1 X89.333 Y30.249 E6.0525
G1 X87.01 Y27.963 E6.1977
G1 X86.795 Y28.307 E6.2161
G1 X89.117 Y30.594 E6.3613
G1 X88.901 Y30.938 E6.3797
G1 X86.579 Y28.651 E6.5249
G1 X86.362 Y28.996 E6.5433
G1 X88.685 Y31.282 E6.6885
G1 X88.468 Y31.627 E6.7069
G1 X86.147 Y29.340 E6.8521
G1 X85.93 Y29.684 E6.8704
G1 X88.253 Y31.971 E7.0156
G1 X88.037 Y32.315 E7.0340
G1 X85.714 Y30.029 E7.1792
G1 X85.499 Y30.373 E7.1976
G1 X87.82 Y32.660 E7.3428
G1 X87.605 Y33.004 E7.3612
G1 X85.282 Y30.717 E7.5064
G1 X85.067 Y31.062 E7.5248
G1 X87.389 Y33.348 E7.6700
G1 X87.173 Y33.693 E7.6884
G1 X84.851 Y31.406 E7.8336
G1 X84.634 Y31.750 E7.8519
G1 X86.957 Y34.037 E7.9971
G1 X86.741 Y34.381 E8.0155
G1 X84.419 Y32.095 E8.1607
G1 X84.203 Y32.439 E8.1791
G1 X86.525 Y34.726 E8.3243
G1 X86.309 Y35.070 E8.3427
G1 X83.986 Y32.783 E8.4879
G1 X83.771 Y33.128 E8.5063
G1 X86.093 Y35.414 E8.6515
G1 X85.877 Y35.759 E8.6699
G1 X83.555 Y33.472 E8.8151
G1 X83.339 Y33.816 E8.8334
G1 X85.661 Y36.103 E8.9786
G1 X85.446 Y36.447 E8.9970
G1 X83.123 Y34.161 E9.1422
G1 X82.907 Y34.505 E9.1606
G1 X85.229 Y36.792 E9.3058
G1 X85.013 Y37.136 E9.3242
G1 X82.691 Y34.849 E9.4694
G1 X82.475 Y35.194 E9.4878
G1 X84.797 Y37.480 E9.6330
G1 X84.581 Y37.825 E9.6513
G1 X82.258 Y35.538 E9.7965
G1 X82.043 Y35.882 E9.8149
G1 X84.365 Y38.169 E9.9601
G1 X84.149 Y38.513 E9.9785
G1 X81.827 Y36.227 E10.1237
G1 X81.611 Y36.571 E10.1421
G1 X83.933 Y38.858 E10.2873
G1 X83.718 Y39.202 E10.3057
G1 X81.395 Y36.915 E10.4509
G1 X81.179 Y37.260 E10.4693
G1 X83.501 Y39.546 E10.6145
G1 X83.285 Y39.891 E10.6328
G1 X80.963 Y37.604 E10.7780
G1 X80.747 Y37.948 E10.7964
G1 X83.07 Y40.235 E10.9416
G1 X82.853 Y40.579 E10.9600
G1 X80.531 Y38.293 E11.1052
G1 X80.315 Y38.637 E11.1236
G1 X82.637 Y40.924 E11.2688
G1 X82.422 Y41.268 E11.2872
G1 X80.099 Y38.981 E11.4324
G1 X79.883 Y39.326 E11.4507
G1 X82.205 Y41.612 E11.5959
G1 X81.99 Y41.957 E11.6143
G1 X79.667 Y39.670 E11.7595
G1 X79.451 Y40.014 E11.7779
G1 X81.773 Y42.301 E11.9231
G1 X81.557 Y42.645 E11.9415
G1 X79.235 Y40.359 E12.0867
G1 X79.019 Y40.703 E12.1051
G1 X81.342 Y42.990 E12.2503
G1 X81.125 Y43.334 E12.2687
G1 X78.803 Y41.047 E12.4139
G1 X78.587 Y41.392 E12.4322
G1 X80.909 Y43.678 E12.5774
G1 X80.694 Y44.023 E12.5958
G1 X78.371 Y41.736 E12.7410
G1 X78.155 Y42.080 E12.7594
G1 X80.477 Y44.367 E12.9046
G1 X80.261 Y44.711 E12.9230
G1 X77.939 Y42.425 E13.0682
G1 X77.723 Y42.769 E13.0866
G1 X80.046 Y45.055 E13.2318
G1 X79.829 Y45.400 E13.2501
G1 X77.508 Y43.113 E13.3954
G1 X77.291 Y43.458 E13.4137
G1 X79.614 Y45.744 E13.5589
G1 X79.398 Y46.088 E13.5773
G1 X77.075 Y43.802 E13.7225
G1 X76.86 Y44.146 E13.7409
G1 X79.181 Y46.433 E13.8861
G1 X78.966 Y46.777 E13.9045
G1 X76.643 Y44.490 E14.0497
G1 X76.427 Y44.835 E14.0681
G1 X78.75 Y47.121 E14.2133
G1 X78.533 Y47.466 E14.2316
G1 X76.212 Y45.179 E14.3768
G1 X75.995 Y45.523 E14.3952
G1 X78.318 Y47.810 E14.5404
G1 X78.101 Y48.154 E14.5588
G1 X75.78 Y45.868 E14.7040
G1 X75.563 Y46.212 E14.7224
G1 X77.886 Y48.499 E14.8676
G1 X77.67 Y48.843 E14.8860
G1 X75.347 Y46.556 E15.0312
G1 X75.132 Y46.901 E15.0496
G1 X77.453 Y49.187 E15.1948
G1 X77.238 Y49.532 E15.2131
G1 X74.915 Y47.245 E15.3583
G1 X74.699 Y47.589 E15.3767
G1 X77.022 Y49.876 E15.5219
G1 X76.805 Y50.220 E15.5403
G1 X74.484 Y47.934 E15.6855
G1 X74.267 Y48.278 E15.7039
G1 X76.59 Y50.565 E15.8491
G1 X76.374 Y50.909 E15.8675
G1 X74.052 Y48.622 E16.0127
G1 X73.836 Y48.967 E16.0310
G1 X76.158 Y51.253 E16.1762
G1 X75.942 Y51.598 E16.1946
G1 X73.619 Y49.311 E16.3398
G1 X73.404 Y49.655 E16.3582
G1 X75.726 Y51.942 E16.5034
G1 X75.51 Y52.286 E16.5218
G1 X73.188 Y50.000 E16.6670
G1 X72.971 Y50.344 E16.6854
G1 X75.294 Y52.631 E16.8306
G1 X75.077 Y52.975 E16.8490
G1 X72.756 Y50.688 E16.9942
G1 X72.539 Y51.033 E17.0125
G1 X74.862 Y53.319 E17.1577
G1 X74.646 Y53.664 E17.1761
G1 X72.323 Y51.377 E17.3213
G1 X72.108 Y51.721 E17.3397
G1 X74.43 Y54.008 E17.4849
G1 X74.214 Y54.352 E17.5033
G1 X71.891 Y52.066 E17.6485
G1 X71.676 Y52.410 E17.6669
G1 X73.998 Y54.697 E17.8121
G1 X73.782 Y55.041 E17.8304
G1 X71.46 Y52.754 E17.9757
G1 X71.243 Y53.099 E17.9940
G1 X73.566 Y55.385 E18.1392
G1 X73.35 Y55.730 E18.1576
G1 X71.028 Y53.443 E18.3028
G1 X70.812 Y53.787 E18.3212
G1 X73.134 Y56.074 E18.4664
G1 X72.918 Y56.418 E18.4848
G1 X70.595 Y54.132 E18.6300
