; G-Code generated by Simplify3D(R) Version 4.0.0
; Oct 3, 2020 at 4:26:44 PM
; Settings Summary
;   processName,Process1
;   applyToModels,Triangle
;   profileName,Base
;   profileVersion,2017-03-01 08:00:00
;   baseProfile,Default (modified)
;   printMaterial,PLA
;   printQuality,new quality
;   printExtruders,
;   extruderName,Primary Extruder
;   extruderToolheadNumber,0
;   extruderDiameter,0.4
;   extruderAutoWidth,0
;   extruderWidth,0.4
;   extrusionMultiplier,0.9
;   extruderUseRetract,1
;   extruderRetractionDistance,2.4
;   extruderExtraRestartDistance,0
;   extruderRetractionZLift,0
;   extruderRetractionSpeed,3600
;   extruderUseCoasting,0
;   extruderCoastingDistance,0.2
;   extruderUseWipe,0
;   extruderWipeDistance,5
;   primaryExtruder,0
;   layerHeight,0.3
;   topSolidLayers,2
;   bottomSolidLayers,2
;   perimeterOutlines,2
;   printPerimetersInsideOut,1
;   startPointOption,2
;   startPointOriginX,0
;   startPointOriginY,0
;   sequentialIslands,0
;   spiralVaseMode,0
;   firstLayerHeightPercentage,90
;   firstLayerWidthPercentage,100
;   firstLayerUnderspeed,0.5
;   useRaft,0
;   raftExtruder,0
;   raftTopLayers,3
;   raftBaseLayers,2
;   raftOffset,3
;   raftSeparationDistance,0.14
;   raftTopInfill,100
;   aboveRaftSpeedMultiplier,0.3
;   useSkirt,1
;   skirtExtruder,0
;   skirtLayers,1
;   skirtOutlines,3
;   skirtOffset,5
;   usePrimePillar,0
;   primePillarExtruder,999
;   primePillarWidth,12
;   primePillarLocation,7
;   primePillarSpeedMultiplier,1
;   useOozeShield,0
;   oozeShieldExtruder,999
;   oozeShieldOffset,2
;   oozeShieldOutlines,1
;   oozeShieldSidewallShape,1
;   oozeShieldSidewallAngle,30
;   oozeShieldSpeedMultiplier,1
;   infillExtruder,0
;   internalInfillPattern,Grid
;   externalInfillPattern,Rectilinear
;   infillPercentage,5
;   outlineOverlapPercentage,20
;   infillExtrusionWidthPercentage,100
;   minInfillLength,5
;   infillLayerInterval,1
;   internalInfillAngles,45,-45
;   overlapInternalInfillAngles,1
;   externalInfillAngles,45,-45
;   generateSupport,0
;   supportExtruder,0
;   supportInfillPercentage,30
;   supportExtraInflation,0
;   supportBaseLayers,0
;   denseSupportExtruder,0
;   denseSupportLayers,0
;   denseSupportInfillPercentage,70
;   supportLayerInterval,1
;   supportHorizontalPartOffset,0.3
;   supportUpperSeparationLayers,1
;   supportLowerSeparationLayers,1
;   supportType,0
;   supportGridSpacing,4
;   maxOverhangAngle,45
;   supportAngles,0
;   temperatureName,Extrusor,Cama
;   temperatureNumber,0,0
;   temperatureSetpointCount,1,1
;   temperatureSetpointLayers,1,1
;   temperatureSetpointTemperatures,180,60
;   temperatureStabilizeAtStartup,1,1
;   temperatureHeatedBed,0,1
;   temperatureRelayBetweenLayers,0,0
;   temperatureRelayBetweenLoops,0,0
;   fanLayers,1,2
;   fanSpeeds,0,100
;   blipFanToFullPower,0
;   adjustSpeedForCooling,1
;   minSpeedLayerTime,15
;   minCoolingSpeedSlowdown,20
;   increaseFanForCooling,0
;   minFanLayerTime,45
;   maxCoolingFanSpeed,100
;   increaseFanForBridging,0
;   bridgingFanSpeed,100
;   use5D,1
;   relativeEdistances,0
;   allowEaxisZeroing,1
;   independentExtruderAxes,0
;   includeM10123,0
;   stickySupport,1
;   applyToolheadOffsets,0
;   gcodeXoffset,0
;   gcodeYoffset,0
;   gcodeZoffset,0
;   overrideMachineDefinition,1
;   machineTypeOverride,0
;   strokeXoverride,200
;   strokeYoverride,300
;   strokeZoverride,200
;   originOffsetXoverride,0
;   originOffsetYoverride,0
;   originOffsetZoverride,0
;   homeXdirOverride,-1
;   homeYdirOverride,-1
;   homeZdirOverride,-1
;   flipXoverride,1
;   flipYoverride,-1
;   flipZoverride,1
;   toolheadOffsets,0,0|0,0|0,0|0,0|0,0|0,0
;   overrideFirmwareConfiguration,1
;   firmwareTypeOverride,RepRap (Marlin/Repetier/Sprinter)
;   GPXconfigOverride,r2
;   baudRateOverride,115200
;   overridePrinterModels,0
;   printerModelsOverride
;   startingGcode,;BEGIN::Starting Script,M106 S[fan_speed_percentage]		;Configuro ventilador,G28			;Home,G1 Z10 F100			;Levanto el eje Z 1cm,M140 S[bed0_temperature]		;Configuro temperatura inicial de la cama,M190 S[bed0_temperature]		;Espero temperatura inivisl de la cama,G29			;Calibracion de altura automatica,G1 Z50 F200			;Levanto el eje Z 5cm para limpiar,M104 S[extruder0_temperature] T0	;Configuro temperatura inicial extrusor,M109 S[extruder0_temperature] T0	;Espero temperatura inicial extrusor,;END::Starting Script
;   layerChangeGcode,
;   retractionGcode,
;   toolChangeGcode,
;   endingGcode,;BEGIN::Ending Script,M104 S0	;Apago el extrusor,M140 S0	;Apago la cama,G1 X0 Y0 F4800	;Muevo el modelo al origen,M84 	;Desabilito los motores,;END::Ending Script
;   exportFileFormat,gcode
;   celebration,0
;   celebrationSong,Random Song
;   postProcessing,python D:\3DPrint\Calibration\Skew\SkewCorrection.py --replace --input [output_filepath]
;   defaultSpeed,3600
;   outlineUnderspeed,0.5
;   solidInfillUnderspeed,0.8
;   supportUnderspeed,0.8
;   rapidXYspeed,7200
;   rapidZspeed,1002
;   minBridgingArea,50
;   bridgingExtraInflation,0
;   bridgingExtrusionMultiplier,1
;   bridgingSpeedMultiplier,1
;   useFixedBridgingAngle,0
;   fixedBridgingAngle,0
;   applyBridgingToPerimeters,0
;   filamentDiameters,1.75|1.75|1.75|1.75|1.75|1.75
;   filamentPricesPerKg,1310|46|46|46|46|46
;   filamentDensities,1.25|1.25|1.25|1.25|1.25|1.25
;   useMinPrintHeight,0
;   minPrintHeight,0
;   useMaxPrintHeight,0
;   maxPrintHeight,0
;   useDiaphragm,0
;   diaphragmLayerInterval,20
;   robustSlicing,1
;   mergeAllIntoSolid,0
;   onlyRetractWhenCrossingOutline,1
;   retractBetweenLayers,1
;   useRetractionMinTravel,0
;   retractionMinTravel,3
;   retractWhileWiping,0
;   onlyWipeOutlines,1
;   avoidCrossingOutline,0
;   maxMovementDetourFactor,3
;   toolChangeRetractionDistance,12
;   toolChangeExtraRestartDistance,-0.5
;   toolChangeRetractionSpeed,600
;   externalThinWallType,0
;   internalThinWallType,2
;   thinWallAllowedOverlapPercentage,10
;   singleExtrusionMinLength,1
;   singleExtrusionMinPrintingWidthPercentage,50
;   singleExtrusionMaxPrintingWidthPercentage,200
;   singleExtrusionEndpointExtension,0.2
;   horizontalSizeCompensation,0
G90
M82
;BEGIN::Starting Script
M106 S0		;Configuro ventilador
G28			;Home
G1 Z10 F100			;Levanto el eje Z 1cm
M140 S60		;Configuro temperatura inicial de la cama
M190 S60		;Espero temperatura inivisl de la cama
G29			;Calibracion de altura automatica
G1 Z50 F200			;Levanto el eje Z 5cm para limpiar
M104 S180 T0	;Configuro temperatura inicial extrusor
M109 S180 T0	;Espero temperatura inicial extrusor
;END::Starting Script
G92 E0
G1 E-2.4000 F3600
G1 Z0.270 F1002
; process Process1
; layer 1, Z = 0.270
T0
; tool H0.300 W0.400
; skirt
G1 X4.152 Y7.362 F7200
G1 E0.0000 F1080
G92 E0
G1 X7.362 Y4.152 E0.2038 F1800
G1 X7.730 Y4.000 E0.2217
G1 X192.270 Y4.000 E8.5078
G1 X192.638 Y4.152 E8.5256
G1 X195.848 Y7.362 E8.7295
G1 X196.000 Y7.730 E8.7474
G1 X196.000 Y15.784 E9.1090
G1 X195.980 Y15.925 E9.1154
G1 X195.541 Y17.430 E9.1858
G1 X195.483 Y17.560 E9.1922
G1 X19.306 Y294.409 E23.9266
G1 X19.122 Y294.582 E23.9379
G1 X16.653 Y295.937 E24.0644
G1 X16.408 Y296.000 E24.0757
G1 X7.730 Y296.000 E24.4654
G1 X7.362 Y295.848 E24.4832
G1 X4.152 Y292.638 E24.6871
G1 X4.000 Y292.270 E24.7050
G1 X4.000 Y7.730 E37.4811
G1 X4.152 Y7.362 E37.4990
G1 X4.491 Y7.589 F7200
G92 E0
G1 X7.589 Y4.491 E0.1967 F1800
G1 X7.810 Y4.400 E0.2074
G1 X192.190 Y4.400 E8.4863
G1 X192.411 Y4.491 E8.4971
G1 X195.509 Y7.589 E8.6938
G1 X195.600 Y7.810 E8.7045
G1 X195.600 Y15.756 E9.0613
G1 X195.588 Y15.840 E9.0651
G1 X195.165 Y17.291 E9.1330
G1 X195.130 Y17.369 E9.1368
G1 X18.996 Y294.152 E23.8677
G1 X18.885 Y294.256 E23.8745
G1 X16.504 Y295.562 E23.9964
G1 X16.358 Y295.600 E24.0032
G1 X7.810 Y295.600 E24.3870
G1 X7.589 Y295.509 E24.3978
G1 X4.491 Y292.411 E24.5945
G1 X4.400 Y292.190 E24.6052
G1 X4.400 Y7.810 E37.3742
G1 X4.491 Y7.589 E37.3849
G1 X4.830 Y7.816 F7200
G92 E0
G1 X7.816 Y4.830 E0.1896 F1800
G1 X7.889 Y4.800 E0.1931
G1 X192.111 Y4.800 E8.4649
G1 X192.184 Y4.830 E8.4685
G1 X195.170 Y7.816 E8.6580
G1 X195.200 Y7.889 E8.6616
G1 X195.200 Y15.727 E9.0136
G1 X195.196 Y15.755 E9.0148
G1 X194.789 Y17.152 E9.0801
G1 X194.778 Y17.178 E9.0814
G1 X18.685 Y293.895 E23.8088
G1 X18.648 Y293.929 E23.8110
G1 X16.356 Y295.187 E23.9285
G1 X16.307 Y295.200 E23.9307
G1 X7.889 Y295.200 E24.3087
G1 X7.816 Y295.170 E24.3123
G1 X4.830 Y292.184 E24.5018
G1 X4.800 Y292.111 E24.5054
G1 X4.800 Y7.889 E37.2673
G1 X4.830 Y7.816 E37.2709
G92 E0
G1 E-2.4000 F3600
; inner perimeter
G1 X10.600 Y10.600 F7200
G1 E0.0000 F3600
G92 E0
G1 X189.400 Y10.600 E8.0283 F1350
G1 X189.400 Y14.825 E8.2181
G1 X14.671 Y289.400 E22.8314
G1 X10.600 Y289.400 E23.0142
G1 X10.600 Y10.600 E35.5326
; outer perimeter
G1 X10.200 Y10.200 F7200
G92 E0
G1 X189.800 Y10.200 E8.0643 F900
G1 X189.800 Y14.942 E8.2772
G1 X14.890 Y289.800 E22.9056
G1 X10.200 Y289.800 E23.1162
G1 X10.200 Y10.200 E35.6706
; inner perimeter
G1 X14.400 Y14.400 F7200
G92 E0
G1 X14.400 Y138.048 E5.5519 F1350
G1 X15.262 Y138.301 E5.5923
G1 X94.511 Y15.025 E12.1726
G1 X94.170 Y14.400 E12.2046
G1 X14.400 Y14.400 E15.7864
; outer perimeter
G1 X14.800 Y14.800 F7200
G92 E0
G1 X14.800 Y137.749 E5.5205 F900
G1 X15.087 Y137.833 E5.5340
G1 X94.046 Y15.008 E12.0902
G1 X93.932 Y14.800 E12.1009
G1 X14.800 Y14.800 E15.6540
; inner perimeter
G1 X99.430 Y14.400 F7200
G92 E0
G1 X14.400 Y146.669 E7.0604 F1350
G1 X14.400 Y281.137 E13.0981
G1 X15.264 Y281.389 E13.1386
G1 X184.770 Y15.023 E27.3151
G1 X184.429 Y14.400 E27.3470
G1 X99.430 Y14.400 E31.1635
; outer perimeter
G1 X99.649 Y14.800 F7200
G92 E0
G1 X14.800 Y146.787 E7.0453 F900
G1 X14.800 Y280.837 E13.0643
G1 X15.088 Y280.921 E13.0778
G1 X184.306 Y15.008 E27.2302
G1 X184.192 Y14.800 E27.2408
G1 X99.649 Y14.800 E31.0369
; solid layer
G1 X94.764 Y15.222 F7200
G92 E0
G1 X97.051 Y17.509 E0.1452 F1440
G1 X96.830 Y17.853 E0.1636
G1 X94.543 Y15.567 E0.3088
G1 X94.322 Y15.911 E0.3272
G1 X96.608 Y18.198 E0.4724
G1 X96.387 Y18.542 E0.4907
G1 X94.100 Y16.255 E0.6359
G1 X93.879 Y16.600 E0.6543
G1 X96.166 Y18.886 E0.7995
G1 X95.944 Y19.231 E0.8179
G1 X93.658 Y16.944 E0.9631
G1 X93.436 Y17.288 E0.9815
G1 X95.723 Y19.575 E1.1267
G1 X95.502 Y19.919 E1.1451
G1 X93.215 Y17.633 E1.2903
G1 X92.994 Y17.977 E1.3087
G1 X95.280 Y20.264 E1.4539
G1 X95.059 Y20.608 E1.4722
G1 X92.772 Y18.321 E1.6174
G1 X92.551 Y18.666 E1.6358
G1 X94.838 Y20.952 E1.7810
G1 X94.616 Y21.297 E1.7994
G1 X92.329 Y19.010 E1.9446
G1 X92.108 Y19.354 E1.9630
G1 X94.395 Y21.641 E2.1082
G1 X94.173 Y21.985 E2.1266
G1 X91.887 Y19.699 E2.2718
G1 X91.665 Y20.043 E2.2901
G1 X93.952 Y22.330 E2.4354
G1 X93.731 Y22.674 E2.4537
G1 X91.444 Y20.387 E2.5989
G1 X91.223 Y20.732 E2.6173
G1 X93.509 Y23.018 E2.7625
G1 X93.288 Y23.363 E2.7809
G1 X91.001 Y21.076 E2.9261
G1 X90.780 Y21.420 E2.9445
G1 X93.067 Y23.707 E3.0897
G1 X92.845 Y24.051 E3.1081
G1 X90.559 Y21.765 E3.2533
G1 X90.337 Y22.109 E3.2716
G1 X92.624 Y24.396 E3.4168
G1 X92.403 Y24.740 E3.4352
G1 X90.116 Y22.453 E3.5804
G1 X89.895 Y22.798 E3.5988
G1 X92.181 Y25.084 E3.7440
G1 X91.960 Y25.429 E3.7624
G1 X89.673 Y23.142 E3.9076
G1 X89.452 Y23.486 E3.9260
G1 X91.739 Y25.773 E4.0712
G1 X91.517 Y26.117 E4.0896
G1 X89.231 Y23.831 E4.2348
G1 X89.009 Y24.175 E4.2531
G1 X91.296 Y26.462 E4.3983
G1 X91.074 Y26.806 E4.4167
G1 X88.788 Y24.519 E4.5619
G1 X88.566 Y24.864 E4.5803
G1 X90.853 Y27.150 E4.7255
G1 X90.632 Y27.495 E4.7439
G1 X88.345 Y25.208 E4.8891
G1 X88.124 Y25.552 E4.9075
G1 X90.410 Y27.839 E5.0527
G1 X90.189 Y28.183 E5.0710
G1 X87.902 Y25.897 E5.2162
G1 X87.681 Y26.241 E5.2346
G1 X89.968 Y28.528 E5.3798
G1 X89.746 Y28.872 E5.3982
G1 X87.460 Y26.585 E5.5434
G1 X87.238 Y26.930 E5.5618
G1 X89.525 Y29.216 E5.7070
G1 X89.304 Y29.561 E5.7254
G1 X87.017 Y27.274 E5.8706
G1 X86.796 Y27.618 E5.8890
G1 X89.082 Y29.905 E6.0342
G1 X88.861 Y30.249 E6.0525
G1 X86.574 Y27.963 E6.1977
G1 X86.353 Y28.307 E6.2161
G1 X88.640 Y30.594 E6.3613
G1 X88.418 Y30.938 E6.3797
G1 X86.132 Y28.651 E6.5249
G1 X85.910 Y28.996 E6.5433
G1 X88.197 Y31.282 E6.6885
G1 X87.975 Y31.627 E6.7069
G1 X85.689 Y29.340 E6.8521
G1 X85.467 Y29.684 E6.8704
G1 X87.754 Y31.971 E7.0156
G1 X87.533 Y32.315 E7.0340
G1 X85.246 Y30.029 E7.1792
G1 X85.025 Y30.373 E7.1976
G1 X87.311 Y32.660 E7.3428
G1 X87.090 Y33.004 E7.3612
G1 X84.803 Y30.717 E7.5064
G1 X84.582 Y31.062 E7.5248
G1 X86.869 Y33.348 E7.6700
G1 X86.647 Y33.693 E7.6884
G1 X84.361 Y31.406 E7.8336
G1 X84.139 Y31.750 E7.8519
G1 X86.426 Y34.037 E7.9971
G1 X86.205 Y34.381 E8.0155
G1 X83.918 Y32.095 E8.1607
G1 X83.697 Y32.439 E8.1791
G1 X85.983 Y34.726 E8.3243
G1 X85.762 Y35.070 E8.3427
G1 X83.475 Y32.783 E8.4879
G1 X83.254 Y33.128 E8.5063
G1 X85.541 Y35.414 E8.6515
G1 X85.319 Y35.759 E8.6699
G1 X83.033 Y33.472 E8.8151
G1 X82.811 Y33.816 E8.8334
G1 X85.098 Y36.103 E8.9786
G1 X84.877 Y36.447 E8.9970
G1 X82.590 Y34.161 E9.1422
G1 X82.369 Y34.505 E9.1606
G1 X84.655 Y36.792 E9.3058
G1 X84.434 Y37.136 E9.3242
G1 X82.147 Y34.849 E9.4694
G1 X81.926 Y35.194 E9.4878
G1 X84.212 Y37.480 E9.6330
G1 X83.991 Y37.825 E9.6513
G1 X81.704 Y35.538 E9.7965
G1 X81.483 Y35.882 E9.8149
G1 X83.770 Y38.169 E9.9601
G1 X83.548 Y38.513 E9.9785
G1 X81.262 Y36.227 E10.1237
G1 X81.040 Y36.571 E10.1421
G1 X83.327 Y38.858 E10.2873
G1 X83.106 Y39.202 E10.3057
G1 X80.819 Y36.915 E10.4509
G1 X80.598 Y37.260 E10.4693
G1 X82.884 Y39.546 E10.6145
G1 X82.663 Y39.891 E10.6328
G1 X80.376 Y37.604 E10.7780
G1 X80.155 Y37.948 E10.7964
G1 X82.442 Y40.235 E10.9416
G1 X82.220 Y40.579 E10.9600
G1 X79.934 Y38.293 E11.1052
G1 X79.712 Y38.637 E11.1236
G1 X81.999 Y40.924 E11.2688
G1 X81.778 Y41.268 E11.2872
G1 X79.491 Y38.981 E11.4324
G1 X79.270 Y39.326 E11.4507
G1 X81.556 Y41.612 E11.5959
G1 X81.335 Y41.957 E11.6143
G1 X79.048 Y39.670 E11.7595
G1 X78.827 Y40.014 E11.7779
G1 X81.113 Y42.301 E11.9231
G1 X80.892 Y42.645 E11.9415
G1 X78.605 Y40.359 E12.0867
G1 X78.384 Y40.703 E12.1051
G1 X80.671 Y42.990 E12.2503
G1 X80.449 Y43.334 E12.2687
G1 X78.163 Y41.047 E12.4139
G1 X77.941 Y41.392 E12.4322
G1 X80.228 Y43.678 E12.5774
G1 X80.007 Y44.023 E12.5958
G1 X77.720 Y41.736 E12.7410
G1 X77.499 Y42.080 E12.7594
G1 X79.785 Y44.367 E12.9046
G1 X79.564 Y44.711 E12.9230
G1 X77.277 Y42.425 E13.0682
G1 X77.056 Y42.769 E13.0866
G1 X79.343 Y45.055 E13.2318
G1 X79.121 Y45.400 E13.2501
G1 X76.835 Y43.113 E13.3954
G1 X76.613 Y43.458 E13.4137
G1 X78.900 Y45.744 E13.5589
G1 X78.679 Y46.088 E13.5773
G1 X76.392 Y43.802 E13.7225
G1 X76.171 Y44.146 E13.7409
G1 X78.457 Y46.433 E13.8861
G1 X78.236 Y46.777 E13.9045
G1 X75.949 Y44.490 E14.0497
G1 X75.728 Y44.835 E14.0681
G1 X78.015 Y47.121 E14.2133
G1 X77.793 Y47.466 E14.2316
G1 X75.507 Y45.179 E14.3768
G1 X75.285 Y45.523 E14.3952
G1 X77.572 Y47.810 E14.5404
G1 X77.350 Y48.154 E14.5588
G1 X75.064 Y45.868 E14.7040
G1 X74.842 Y46.212 E14.7224
G1 X77.129 Y48.499 E14.8676
G1 X76.908 Y48.843 E14.8860
G1 X74.621 Y46.556 E15.0312
G1 X74.400 Y46.901 E15.0496
G1 X76.686 Y49.187 E15.1948
G1 X76.465 Y49.532 E15.2131
G1 X74.178 Y47.245 E15.3583
G1 X73.957 Y47.589 E15.3767
G1 X76.244 Y49.876 E15.5219
G1 X76.022 Y50.220 E15.5403
G1 X73.736 Y47.934 E15.6855
G1 X73.514 Y48.278 E15.7039
G1 X75.801 Y50.565 E15.8491
G1 X75.580 Y50.909 E15.8675
G1 X73.293 Y48.622 E16.0127
G1 X73.072 Y48.967 E16.0310
G1 X75.358 Y51.253 E16.1762
G1 X75.137 Y51.598 E16.1946
G1 X72.850 Y49.311 E16.3398
G1 X72.629 Y49.655 E16.3582
G1 X74.916 Y51.942 E16.5034
G1 X74.694 Y52.286 E16.5218
G1 X72.408 Y50.000 E16.6670
G1 X72.186 Y50.344 E16.6854
G1 X74.473 Y52.631 E16.8306
G1 X74.251 Y52.975 E16.8490
G1 X71.965 Y50.688 E16.9942
G1 X71.743 Y51.033 E17.0125
G1 X74.030 Y53.319 E17.1577
G1 X73.809 Y53.664 E17.1761
G1 X71.522 Y51.377 E17.3213
G1 X71.301 Y51.721 E17.3397
G1 X73.587 Y54.008 E17.4849
G1 X73.366 Y54.352 E17.5033
G1 X71.079 Y52.066 E17.6485
G1 X70.858 Y52.410 E17.6669
G1 X73.145 Y54.697 E17.8121
G1 X72.923 Y55.041 E17.8304
G1 X70.637 Y52.754 E17.9757
G1 X70.415 Y53.099 E17.9940
G1 X72.702 Y55.385 E18.1392
G1 X72.481 Y55.730 E18.1576
G1 X70.194 Y53.443 E18.3028
G1 X69.973 Y53.787 E18.3212
G1 X72.259 Y56.074 E18.4664
G1 X72.038 Y56.418 E18.4848
